assets/icons/standard/picklist_type.svg

<?xml version="1.0"?><svg xmlns="http://www.w3.org/2000/svg" width="100" height="100" viewBox="0 0 100 100"><path fill="#fff" d="m78 36h-40c-1.1 0-2-0.9-2-2v-4c0-1.1 0.9-2 2-2h40c1.1 0 2 0.9 2 2v4c0 1.1-0.9 2-2 2z m0 18h-40c-1.1 0-2-0.9-2-2v-4c0-1.1 0.9-2 2-2h40c1.1 0 2 0.9 2 2v4c0 1.1-0.9 2-2 2z m-52 0h-4c-1.1 0-2-0.9-2-2v-4c0-1.1 0.9-2 2-2h4c1.1 0 2 0.9 2 2v4c0 1.1-0.9 2-2 2z m0-18h-4c-1.1 0-2-0.9-2-2v-4c0-1.1 0.9-2 2-2h4c1.1 0 2 0.9 2 2v4c0 1.1-0.9 2-2 2z m0 36h-4c-1.1 0-2-0.9-2-2v-4c0-1.1 0.9-2 2-2h4c1.1 0 2 0.9 2 2v4c0 1.1-0.9 2-2 2z m52 0h-40c-1.1 0-2-0.9-2-2v-4c0-1.1 0.9-2 2-2h40c1.1 0 2 0.9 2 2v4c0 1.1-0.9 2-2 2z"></path></svg>

<svg xmlns="http://www.w3.org/2000/svg" x="0px" y="0px"
	 width="100px" height="100px" viewBox="0 0 100 100" enable-background="new 0 0 100 100" xml:space="preserve">
<path fill="#FFFFFF" d="M78,36H38c-1.1,0-2-0.9-2-2v-4c0-1.1,0.9-2,2-2H78c1.1,0,2,0.9,2,2v4C80,35.1,79.1,36,78,36z"/>
<path fill="#FFFFFF" d="M78,54H38c-1.1,0-2-0.9-2-2v-4c0-1.1,0.9-2,2-2H78c1.1,0,2,0.9,2,2v4C80,53.1,79.1,54,78,54z"/>
<path fill="#FFFFFF" d="M26,54h-4c-1.1,0-2-0.9-2-2v-4c0-1.1,0.9-2,2-2h4c1.1,0,2,0.9,2,2v4C28,53.1,27.1,54,26,54z"/>
<path fill="#FFFFFF" d="M26,36h-4c-1.1,0-2-0.9-2-2v-4c0-1.1,0.9-2,2-2h4c1.1,0,2,0.9,2,2v4C28,35.1,27.1,36,26,36z"/>
<path fill="#FFFFFF" d="M26,72h-4c-1.1,0-2-0.9-2-2v-4c0-1.1,0.9-2,2-2h4c1.1,0,2,0.9,2,2v4C28,71.1,27.1,72,26,72z"/>
<path fill="#FFFFFF" d="M78,72H38c-1.1,0-2-0.9-2-2v-4c0-1.1,0.9-2,2-2H78c1.1,0,2,0.9,2,2v4C80,71.1,79.1,72,78,72z"/>
</svg>
